X: 564
T:Paddy Fahey's
M:6/8
L:1/8
R:Jig
N:Posted to the woodenflute mailing list, August 2002
Z:Pat Higgins
Z: Turned into abc Steve Mansfield
K:D
|DFA d2e|dcA G3|AFD =c2d|e=cA B=cd|
|DFA d2e|dcA G3|Ad=c AGE|E3 D3:||
|d3 fed|ceA A2B|=cB=c ed=c|BGG GAG|
|FAd fed|cAG FDD|ded =cAG|EDC D3:||


